humanity-icon-theme/Humanity/mimes/22/image-x-psd.svg

<?xml version="1.0" encoding="UTF-8" standalone="no"?>
<!-- Created with Inkscape (http://www.inkscape.org/) -->

<svg
   xmlns:svg="http://www.w3.org/2000/svg"
   xmlns="http://www.w3.org/2000/svg"
   xmlns:xlink="http://www.w3.org/1999/xlink"
   version="1.0"
   width="22"
   height="22"
   id="svg3386">
  <defs
     id="defs3388">
    <linearGradient
       id="linearGradient3104">
      <stop
         id="stop3106"
         style="stop-color:#aaaaaa;stop-opacity:1"
         offset="0" />
      <stop
         id="stop3108"
         style="stop-color:#c8c8c8;stop-opacity:1"
         offset="1" />
    </linearGradient>
    <linearGradient
       id="linearGradient3600">
      <stop
         id="stop3602"
         style="stop-color:#f4f4f4;stop-opacity:1"
         offset="0" />
      <stop
         id="stop3604"
         style="stop-color:#dbdbdb;stop-opacity:1"
         offset="1" />
    </linearGradient>
    <radialGradient
       cx="102"
       cy="112.3047"
       r="139.55859"
       id="XMLID_8_"
       gradientUnits="userSpaceOnUse">
      <stop
         id="stop41"
         style="stop-color:#b7b8b9;stop-opacity:1"
         offset="0" />
      <stop
         id="stop47"
         style="stop-color:#ececec;stop-opacity:1"
         offset="0.17402567" />
      <stop
         id="stop49"
         style="stop-color:#fafafa;stop-opacity:0"
         offset="0.23907544" />
      <stop
         id="stop51"
         style="stop-color:#ffffff;stop-opacity:0"
         offset="0.30111277" />
      <stop
         id="stop53"
         style="stop-color:#fafafa;stop-opacity:0"
         offset="0.53130001" />
      <stop
         id="stop55"
         style="stop-color:#ebecec;stop-opacity:0"
         offset="0.84490001" />
      <stop
         id="stop57"
         style="stop-color:#e1e2e3;stop-opacity:0"
         offset="1" />
    </radialGradient>
    <linearGradient
       id="linearGradient3211">
      <stop
         id="stop3213"
         style="stop-color:#ffffff;stop-opacity:1"
         offset="0" />
      <stop
         id="stop3215"
         style="stop-color:#ffffff;stop-opacity:0"
         offset="1" />
    </linearGradient>
    <linearGradient
       id="linearGradient8589">
      <stop
         id="stop8591"
         style="stop-color:#fefefe;stop-opacity:1"
         offset="0" />
      <stop
         id="stop8593"
         style="stop-color:#cbcbcb;stop-opacity:1"
         offset="1" />
    </linearGradient>
    <linearGradient
       x1="32.892288"
       y1="8.0590115"
       x2="36.358372"
       y2="5.4565363"
       id="linearGradient2425"
       xlink:href="#linearGradient8589"
       gradientUnits="userSpaceOnUse"
       gradientTransform="matrix(0.4778466,0,0,0.5524833,-0.62774609,-0.0761283)" />
    <linearGradient
       x1="24"
       y1="1.9999999"
       x2="24"
       y2="46.01725"
       id="linearGradient2429"
       xlink:href="#linearGradient3211"
       gradientUnits="userSpaceOnUse"
       gradientTransform="matrix(0.4545444,0,0,0.4651153,0.09093361,0.3372293)" />
    <radialGradient
       cx="92.090363"
       cy="102.70267"
       r="139.55859"
       fx="92.090363"
       fy="102.70267"
       id="radialGradient2432"
       xlink:href="#XMLID_8_"
       gradientUnits="userSpaceOnUse"
       gradientTransform="matrix(0.1702128,0,0,-0.1907226,0.10638221,23.716504)" />
    <linearGradient
       x1="25.132275"
       y1="0.98520643"
       x2="25.132275"
       y2="47.013336"
       id="linearGradient2435"
       xlink:href="#linearGradient3600"
       gradientUnits="userSpaceOnUse"
       gradientTransform="matrix(0.4857154,0,0,0.4780255,-0.65717039,-0.7059501)" />
    <linearGradient
       x1="-51.786404"
       y1="50.786446"
       x2="-51.786404"
       y2="2.9062471"
       id="linearGradient2438"
       xlink:href="#linearGradient3104"
       gradientUnits="userSpaceOnUse"
       gradientTransform="matrix(0.3922135,0,0,0.4473607,28.199292,-1.2386997)" />
    <linearGradient
       x1="375.62509"
       y1="311.79102"
       x2="393.43311"
       y2="374.92462"
       id="linearGradient7060"
       xlink:href="#linearGradient7176"
       gradientUnits="userSpaceOnUse"
       gradientTransform="matrix(0.14454376,-0.0258744,0.02414305,0.15490929,-56.072725,-35.263332)" />
    <linearGradient
       id="linearGradient7176">
      <stop
         id="stop7178"
         style="stop-color:#204a87;stop-opacity:1"
         offset="0" />
      <stop
         id="stop7180"
         style="stop-color:#97bcd4;stop-opacity:1"
         offset="1" />
    </linearGradient>
    <linearGradient
       x1="13.112816"
       y1="7.2513928"
       x2="20.403833"
       y2="21.766705"
       id="linearGradient7062"
       xlink:href="#linearGradient7613"
       gradientUnits="userSpaceOnUse"
       gradientTransform="matrix(0.62911359,0,0,0.67422865,-4.0534864,-1.6707578)" />
    <linearGradient
       id="linearGradient7613">
      <stop
         id="stop7615"
         style="stop-color:#304456;stop-opacity:1"
         offset="0" />
      <stop
         id="stop7617"
         style="stop-color:#6394be;stop-opacity:1"
         offset="1" />
    </linearGradient>
    <radialGradient
       cx="416.65488"
       cy="392.0784"
       r="27.076788"
       fx="416.65488"
       fy="392.0784"
       id="radialGradient7065"
       xlink:href="#linearGradient7192"
       gradientUnits="userSpaceOnUse"
       gradientTransform="matrix(0.17992296,-0.19211484,0.2031471,0.18249679,-140.12999,25.083914)" />
    <linearGradient
       id="linearGradient7192">
      <stop
         id="stop7210"
         style="stop-color:#fce94f;stop-opacity:1"
         offset="0" />
      <stop
         id="stop8189"
         style="stop-color:#66d09a;stop-opacity:1"
         offset="0.5" />
      <stop
         id="stop8187"
         style="stop-color:#66c6d0;stop-opacity:1"
         offset="1" />
    </linearGradient>
    <linearGradient
       x1="32.027035"
       y1="21.986458"
       x2="27.560297"
       y2="15.298627"
       id="linearGradient7067"
       xlink:href="#linearGradient7605"
       gradientUnits="userSpaceOnUse"
       gradientTransform="matrix(0.68679991,0,0,0.67265216,-5.3832408,-1.6478847)" />
    <linearGradient
       id="linearGradient7605">
      <stop
         id="stop7607"
         style="stop-color:#bcae3e;stop-opacity:1"
         offset="0" />
      <stop
         id="stop7609"
         style="stop-color:#3b9a6a;stop-opacity:1"
         offset="0.5" />
      <stop
         id="stop7611"
         style="stop-color:#3d8891;stop-opacity:1"
         offset="1" />
    </linearGradient>
    <linearGradient
       id="linearGradient9162">
      <stop
         id="stop9170"
         style="stop-color:#8ae234;stop-opacity:1"
         offset="0" />
      <stop
         id="stop9166"
         style="stop-color:#4db07d;stop-opacity:0.88235295"
         offset="1" />
    </linearGradient>
    <radialGradient
       cx="416.80206"
       cy="399.14209"
       r="20.131355"
       fx="416.80206"
       fy="399.14209"
       id="radialGradient2907"
       xlink:href="#linearGradient9162"
       gradientUnits="userSpaceOnUse"
       gradientTransform="matrix(-0.24383917,-0.0411249,0.01853542,-0.1054198,110.07233,77.082896)" />
  </defs>
  <path
     d="m 2.4999608,0.499961 c 3.8955799,0 7.6044552,0 11.5000382,0 0.683368,0.2372969 4.541325,3.12817 5.5,5.000039 0,5.729157 3.9e-5,10.270842 3.9e-5,16 l -17.0000772,0 c 0,-7.33336 0,-13.6666811 0,-21.000039 z"
     id="path4160"
     style="fill:url(#linearGradient2435);fill-opacity:1;stroke:url(#linearGradient2438);stroke-width:0.99992162;stroke-linecap:butt;stroke-linejoin:round;stroke-miterlimit:4;stroke-opacity:1;stroke-dasharray:none;stroke-dashoffset:0;display:inline" />
  <path
     d="M 3.1702119,22 C 3.0764249,22 2.9999991,21.91437 2.9999991,21.809277 l 0,-20.5980318 c 0,-0.1052785 0.076426,-0.1907219 0.1702128,-0.1907219 3.5214555,0.052717 7.4238521,-0.078858 10.9410271,0.013125 l 4.838887,4.3271368 0.04987,16.4484919 C 18.999999,21.914366 18.923742,22 18.829785,22 L 3.1702119,22 z"
     id="path4191"
     style="fill:url(#radialGradient2432);fill-opacity:1" />
  <path
     d="m 18.5,5.6770357 c 0,5.2083053 0,10.6146573 0,15.8229643 -5,0 -9.9999997,0 -15.0000009,0 0,-6.66667 0,-13.333334 0,-20.0000001 3.4372614,0 6.9564989,0 10.3937609,0"
     id="path2435"
     style="opacity:0.6;fill:none;stroke:url(#linearGradient2429);stroke-width:0.99999988;stroke-linecap:butt;stroke-linejoin:miter;stroke-miterlimit:4;stroke-opacity:1;stroke-dasharray:none;stroke-dashoffset:0;display:inline" />
  <path
     d="m 13.075473,1 c 1.156303,0.3287671 0.339059,4.6143789 0.339059,4.6143789 0,0 4.515388,-0.4277362 5.60771,1.1949961 C 20.511395,9.021632 18.954022,6.1742029 18.848795,5.9876778 18.092867,4.6476323 14.982455,1.4405918 13.803386,1.0464703 13.715154,1.0169778 13.51951,1 13.075473,1 z"
     id="path3370"
     style="opacity:0.2;fill:#000000;fill-opacity:1;fill-rule:evenodd;stroke:none;display:inline" />
  <path
     d="m 12.999999,1 c 1.526166,0 1,4 1,4 0,0 4.992074,-0.45326 4.992074,2 0,-0.5977419 0.05575,-1.4784338 -0.06407,-1.6559326 C 18.088896,4.1010616 15.184238,1.4821803 14.129934,1.0464703 14.043956,1.0109384 13.444036,1 12.999999,1 z"
     id="path4474"
     style="fill:url(#linearGradient2425);fill-opacity:1;fill-rule:evenodd;stroke:none;display:inline" />
  <path
     d="m 10.254566,16.179776 c 1.023857,1.287178 2.339658,1.48531 3.938398,1.466311 -0.10967,0.247941 -0.219338,0.495881 -0.329007,0.743821 0.306377,-0.358423 0.534765,-0.747873 1.041334,-0.697997 -0.313393,0.44167 -0.364857,0.727461 -0.483454,1.053206 0.606224,-0.535793 1.556642,-0.719728 2.323279,-0.93454 -0.203948,-0.304872 -0.513907,-0.524982 -0.717855,-0.829855 0.354767,-0.592497 0.5061,-1.395297 0.535295,-2.106321 -0.137244,0.370438 -0.338696,0.667102 -0.529,0.928234 0.388049,-0.943883 -0.538009,-1.929317 -0.867624,-2.716993 0.03598,0.372938 -0.198727,0.836102 0.288372,1.38949 -0.305895,1.098472 -0.205694,1.319066 -0.881335,1.986756 -1.115067,0.271426 -2.823782,0.516569 -4.318403,-0.282112 z"
     id="path8191"
     style="fill:url(#radialGradient2907);fill-opacity:1;fill-rule:evenodd;stroke:#4b8748;stroke-width:0.50976694;stroke-linecap:butt;stroke-linejoin:miter;stroke-miterlimit:4;stroke-opacity:1;stroke-dasharray:none;display:inline" />
  <path
     d="m 5.8512418,10.366719 c 0.074132,2.918692 2.6208477,4.647263 4.9812362,5.991252 1.334585,0.490328 2.537749,0.356149 3.911266,0.191143 0.848558,-1.699925 0.493859,-3.106596 -0.250679,-4.786593 -0.463961,-0.655387 -0.579807,-1.336839 -0.682106,-2.104365 -0.535318,0.48902 -0.255265,1.292303 -0.267893,1.98278 C 13.22295,10.467948 12.480388,9.495966 11.832007,8.478211 11.350087,6.7052732 9.5603521,5.620551 8.1355994,4.5718641 10.473459,8.149661 11.028978,8.332389 10.031855,12.611035 7.8831922,13.374443 6.5122235,12.310858 5.8512418,10.366719 z"
     id="path27337"
     style="fill:url(#radialGradient7065);fill-opacity:1;fill-rule:evenodd;stroke:url(#linearGradient7067);stroke-width:0.50976694;stroke-linecap:butt;stroke-linejoin:miter;stroke-miterlimit:4;stroke-opacity:1;stroke-dasharray:none;display:inline" />
  <path
     d="m 4.2442293,8.031691 c 0.4886853,1.994188 1.8185428,3.618215 3.6081344,4.391351 0.8012731,0.181964 1.5997934,0.357151 2.2444783,0.153507 C 9.9441261,11.308367 10.200655,10.097659 10.30272,8.710644 10.35546,7.5150854 10.412658,6.4546809 9.7567811,5.4743578 8.7468148,4.013985 7.4388234,3.4642339 5.9170782,3.5675977 5.546519,4.1219227 5.17524,4.5850496 4.8937582,5.0616921 4.4251246,5.8552485 4.0629999,7.1828774 4.6523082,8.037969 5.2321333,8.618973 5.9918955,9.232994 6.4410675,9.304297 5.7598136,9.354001 5.2987212,8.982434 4.7425162,8.616769 4.5764201,8.421744 4.4103253,8.226716 4.2442293,8.031691 z"
     id="path24402"
     style="fill:url(#linearGradient7060);fill-opacity:1;fill-rule:evenodd;stroke:url(#linearGradient7062);stroke-width:0.48846045;stroke-linecap:butt;stroke-linejoin:miter;stroke-miterlimit:4;stroke-opacity:1;stroke-dasharray:none;display:inline" />
  <path
     d="M 17.11644,19.401527 C 15.622352,18.230138 12.170076,14.972068 11.208006,13.825464 10.488977,12.968524 10.05594,12.763374 9.3426551,12.941766 8.689918,13.10502 8.5870125,13.065968 8.9965486,12.810409 9.3171051,12.610385 9.5707181,12.347725 9.5601341,12.22672 9.5495441,12.105717 8.9137046,11.024929 8.1471447,9.82497 L 5.8120292,3.9924812 c 1.9713438,3.980637 4.2566208,7.5493658 4.6716528,7.0829998 0.197168,-0.221556 0.27026,-0.115636 0.2234,0.323741 -0.08522,0.799008 2.221259,3.47448 5.020717,5.823947 1.079861,0.906282 2.044704,1.911646 2.144095,2.234148 0.225501,0.73168 0.25138,0.733592 -0.755454,-0.05579 z"
     id="path24368-2"
     style="fill:#2a6a28;display:inline" />
</svg>

<?xml version="1.0" encoding="UTF-8" standalone="no"?>
<!-- Created with Inkscape (http://www.inkscape.org/) -->
<svg id="svg3386" xmlns="http://www.w3.org/2000/svg" height="22" width="22" version="1.0" xmlns:xlink="http://www.w3.org/1999/xlink">
 <defs id="defs3388">
  <linearGradient id="linearGradient2425" y2="5.4565" gradientUnits="userSpaceOnUse" x2="36.358" gradientTransform="matrix(.47785 0 0 .55248 -.62775 -.076128)" y1="8.059" x1="32.892">
   <stop id="stop8591" style="stop-color:#fefefe" offset="0"/>
   <stop id="stop8593" style="stop-color:#cbcbcb" offset="1"/>
  </linearGradient>
  <linearGradient id="linearGradient2429" y2="46.017" gradientUnits="userSpaceOnUse" x2="24" gradientTransform="matrix(.45454 0 0 .46512 .090934 .33723)" y1="2" x1="24">
   <stop id="stop3213" style="stop-color:#fff" offset="0"/>
   <stop id="stop3215" style="stop-color:#fff;stop-opacity:0" offset="1"/>
  </linearGradient>
  <radialGradient id="radialGradient2432" gradientUnits="userSpaceOnUse" cy="102.7" cx="92.09" gradientTransform="matrix(.17021 0 0 -.19072 .10638 23.717)" r="139.56">
   <stop id="stop41" style="stop-color:#b7b8b9" offset="0"/>
   <stop id="stop47" style="stop-color:#ececec" offset=".17403"/>
   <stop id="stop49" style="stop-color:#fafafa;stop-opacity:0" offset=".23908"/>
   <stop id="stop51" style="stop-color:#fff;stop-opacity:0" offset=".30111"/>
   <stop id="stop53" style="stop-color:#fafafa;stop-opacity:0" offset=".53130"/>
   <stop id="stop55" style="stop-color:#ebecec;stop-opacity:0" offset=".84490"/>
   <stop id="stop57" style="stop-color:#e1e2e3;stop-opacity:0" offset="1"/>
  </radialGradient>
  <linearGradient id="linearGradient2435" y2="47.013" gradientUnits="userSpaceOnUse" x2="25.132" gradientTransform="matrix(.48572 0 0 .47803 -.65717 -.70595)" y1=".98521" x1="25.132">
   <stop id="stop3602" style="stop-color:#f4f4f4" offset="0"/>
   <stop id="stop3604" style="stop-color:#dbdbdb" offset="1"/>
  </linearGradient>
  <linearGradient id="linearGradient2438" y2="2.9062" gradientUnits="userSpaceOnUse" x2="-51.786" gradientTransform="matrix(.39221 0 0 .44736 28.199 -1.2387)" y1="50.786" x1="-51.786">
   <stop id="stop3106" style="stop-color:#aaa" offset="0"/>
   <stop id="stop3108" style="stop-color:#c8c8c8" offset="1"/>
  </linearGradient>
  <linearGradient id="linearGradient7060" y2="374.92" gradientUnits="userSpaceOnUse" x2="393.43" gradientTransform="matrix(.14454 -.025874 .024143 .15491 -56.073 -35.263)" y1="311.79" x1="375.63">
   <stop id="stop7178" style="stop-color:#204a87" offset="0"/>
   <stop id="stop7180" style="stop-color:#97bcd4" offset="1"/>
  </linearGradient>
  <linearGradient id="linearGradient7062" y2="21.767" gradientUnits="userSpaceOnUse" x2="20.404" gradientTransform="matrix(.62911 0 0 .67423 -4.0535 -1.6708)" y1="7.2514" x1="13.113">
   <stop id="stop7615" style="stop-color:#304456" offset="0"/>
   <stop id="stop7617" style="stop-color:#6394be" offset="1"/>
  </linearGradient>
  <radialGradient id="radialGradient7065" gradientUnits="userSpaceOnUse" cy="392.08" cx="416.65" gradientTransform="matrix(.17992 -.19211 .20315 .18250 -140.13 25.084)" r="27.077">
   <stop id="stop7210" style="stop-color:#fce94f" offset="0"/>
   <stop id="stop8189" style="stop-color:#66d09a" offset=".5"/>
   <stop id="stop8187" style="stop-color:#66c6d0" offset="1"/>
  </radialGradient>
  <linearGradient id="linearGradient7067" y2="15.299" gradientUnits="userSpaceOnUse" x2="27.56" gradientTransform="matrix(.68680 0 0 .67265 -5.3832 -1.6479)" y1="21.986" x1="32.027">
   <stop id="stop7607" style="stop-color:#bcae3e" offset="0"/>
   <stop id="stop7609" style="stop-color:#3b9a6a" offset=".5"/>
   <stop id="stop7611" style="stop-color:#3d8891" offset="1"/>
  </linearGradient>
  <radialGradient id="radialGradient2907" gradientUnits="userSpaceOnUse" cy="399.14" cx="416.8" gradientTransform="matrix(-.24384 -.041125 .018535 -.10542 110.07 77.083)" r="20.131">
   <stop id="stop9170" style="stop-color:#8ae234" offset="0"/>
   <stop id="stop9166" style="stop-color:#4db07d;stop-opacity:.88235" offset="1"/>
  </radialGradient>
 </defs>
 <path id="path4160" style="stroke-linejoin:round;stroke:url(#linearGradient2438);stroke-width:.99992;fill:url(#linearGradient2435)" d="m2.5 0.49996h11.5c0.68337 0.2373 4.5413 3.1282 5.5 5 0 5.7292 0.000039 10.271 0.000039 16h-17v-21z"/>
 <path id="path4191" style="fill:url(#radialGradient2432)" d="m3.1702 22c-0.0938 0-0.1702-0.086-0.1702-0.191v-20.598c0-0.10528 0.076426-0.19072 0.17021-0.19072 3.5215 0.052717 7.4239-0.078858 10.941 0.013125l4.8389 4.3271 0.04987 16.448c0 0.106-0.076 0.192-0.17 0.192h-15.66z"/>
 <path id="path2435" style="opacity:.6;stroke:url(#linearGradient2429);fill:none" d="m18.5 5.677v15.823h-15v-20h10.394"/>
 <path id="path3370" style="opacity:.2;fill-rule:evenodd" d="m13.075 1c1.1563 0.32877 0.33906 4.6144 0.33906 4.6144s4.5154-0.42774 5.6077 1.195c1.489 2.2122-0.068-0.6352-0.173-0.8217-0.756-1.3401-3.867-4.5471-5.046-4.9412-0.088-0.0295-0.283-0.0465-0.728-0.0465z"/>
 <path id="path4474" style="fill:url(#linearGradient2425);fill-rule:evenodd" d="m13 1c1.5262 0 1 4 1 4s4.9921-0.45326 4.9921 2c0-0.59774 0.05575-1.4784-0.06407-1.6559-0.839-1.243-3.744-3.8619-4.798-4.2976-0.086-0.0356-0.686-0.0465-1.13-0.0465z"/>
 <path id="path8191" style="fill-rule:evenodd;stroke:#4b8748;stroke-width:.50977;fill:url(#radialGradient2907)" d="m10.255 16.18c1.0239 1.2872 2.3397 1.4853 3.9384 1.4663l-0.32901 0.74382c0.30638-0.35842 0.53476-0.74787 1.0413-0.698-0.31339 0.44167-0.36486 0.72746-0.48345 1.0532 0.60622-0.53579 1.5566-0.71973 2.3233-0.93454-0.20395-0.30487-0.51391-0.52498-0.71786-0.82986 0.35477-0.5925 0.5061-1.3953 0.5353-2.1063-0.13724 0.37044-0.3387 0.6671-0.529 0.92823 0.38805-0.94388-0.53801-1.9293-0.86762-2.717 0.03598 0.37294-0.19873 0.8361 0.28837 1.3895-0.3059 1.0985-0.20569 1.3191-0.88134 1.9868-1.1151 0.27143-2.8238 0.51657-4.3184-0.28211z"/>
 <path id="path27337" style="fill-rule:evenodd;stroke:url(#linearGradient7067);stroke-width:.50977;fill:url(#radialGradient7065)" d="m5.8512 10.367c0.074132 2.9187 2.6208 4.6473 4.9812 5.9913 1.3346 0.49033 2.5377 0.35615 3.9113 0.19114 0.84856-1.6999 0.49386-3.1066-0.25068-4.7866-0.46396-0.65539-0.57981-1.3368-0.68211-2.1044-0.53532 0.48902-0.25526 1.2923-0.26789 1.9828-0.32-1.173-1.063-2.145-1.711-3.1628-0.482-1.7729-2.2716-2.8576-3.6964-3.9063 2.3374 3.5778 2.8934 3.7605 1.8964 8.0391-2.1488 0.763-3.5198-0.3-4.1808-2.244z"/>
 <path id="path24402" style="fill-rule:evenodd;stroke:url(#linearGradient7062);stroke-width:.48846;fill:url(#linearGradient7060)" d="m4.2442 8.0317c0.48869 1.9942 1.8185 3.6182 3.6081 4.3914 0.80127 0.18196 1.5998 0.35715 2.2445 0.15351-0.1529-1.269 0.104-2.479 0.206-3.8664 0.052-1.1955 0.11-2.2559-0.5462-3.2362-1.01-1.4604-2.318-2.0102-3.8397-1.9068-0.3706 0.5543-0.7419 1.0174-1.0233 1.4941-0.4687 0.7935-0.8308 2.1212-0.2415 2.9763 0.5798 0.581 1.3396 1.195 1.7888 1.2663-0.6813 0.0497-1.1424-0.3219-1.6986-0.6875-0.1661-0.1951-0.3322-0.3901-0.4983-0.5851z"/>
 <path id="path24368-2" style="fill:#2a6a28" d="m17.116 19.402c-1.494-1.172-4.946-4.43-5.908-5.577-0.719-0.856-1.152-1.062-1.8653-0.883-0.6528 0.163-0.7557 0.124-0.3462-0.132 0.3206-0.2 0.5742-0.462 0.5636-0.583s-0.6464-1.202-1.413-2.402l-2.3351-5.8325c1.9713 3.9806 4.2566 7.5494 4.6717 7.083 0.19717-0.22156 0.27026-0.11564 0.2234 0.32374-0.08522 0.79901 2.2213 3.4745 5.0207 5.8239 1.0799 0.90628 2.0447 1.9116 2.1441 2.2341 0.2255 0.73168 0.25138 0.73359-0.75545-0.05579z"/>
</svg>
